!! 00047] TT[KA
!! NN
!!!OTL: Cai Cha diao
!!!ARE: Asia, China,ÿHunan, Westen
!! Ethnic Group: Han
!! I, 542
!!!SCT: C0130
!!!YEM: Copyright 1995, estate of Helmut Schaffrath.
**kern
*ICvox
*Ivox
*M3/4
*k[b-e-]
*B-:
{16ccc
16bb-
16bb-
16gg
16ccc
8bb-
16ccc
4ddd
=1
16ccc
16fff
8ddd
16ccc
16bb-
16gg
16ff
4bb-}
=2
{16ddd
8ddd
16ddd
4ccc
4gg
=3
16ccc
16bb-
16gg
16ff
8gg
16ddd
16ddd
4ccc
=4
4gg
8bb-
16gg
16ff
4gg}
=5
{16bb-
8bb-
16gg
8.bb-
16ccc
4ddd
=6
16ccc
16fff
8ddd
16.ccc
32bb-
24gg
24ff
24gg
4bb-}
=7
{16ddd
16ddd
16ddd
16ddd
4ccc
4gg
=8
16ccc
16bb-
16gg
16ff
8gg
16ddd
16ddd
4ccc
=9
4gg
16ccc
16bb-
16gg
16ff
4gg}
==
!!!AGN: Wuge, Dengdiao, Caicha. Chanong shenghuo
!! Zu dieser Melodie gibt es viele Varianten.
!!    Wenig Verzierungen.
!!!ONB: ESAC (Essen Associative Code) Database: CHINA
!!!AMT: simple triple
!!!AIN: vox
!!!EED: Helmut Schaffrath
!!!EEV: 1.0
*-
